flaticon/transport/bus-6.svg

<svg xmlns="http://www.w3.org/2000/svg" width="32" height="32" viewBox="0 0 24 24">
    <path d="M23.28125 16.792969C23.042969 16.753906 22.84375 16.910156 22.800781 17.113281 22.363281 19.308594 20.605469 20.785156 18.488281 20.785156 16.460938 20.785156 14.707031 19.457031 14.105469 17.589844L15.972656 17.589844 15.972656 16.792969 13.652344 16.792969C13.601562 16.78125 13.546875 16.78125 13.496094 16.792969L12.777344 16.792969 12.777344 19.988281 13.578125 19.988281 13.578125 18.503906C14.441406 20.355469 16.335938 21.585938 18.449219 21.585938 21.003906 21.585938 23.042969 19.867188 23.601562 17.269531 23.640625 17.03125 23.480469 16.832031 23.28125 16.792969zM23.160156 13.757812C22.269531 11.957031 20.476562 10.800781 18.449219 10.800781 16.011719 10.800781 13.855469 12.398438 13.179688 14.714844 13.136719 14.914062 13.257812 15.113281 13.457031 15.195312 13.65625 15.234375 13.855469 15.113281 13.9375 14.914062 14.496094 13 16.414062 11.601562 18.449219 11.601562 20.265625 11.601562 21.886719 12.695312 22.582031 14.394531L20.765625 14.394531 20.765625 15.195312 23.960938 15.195312 23.960938 12 23.160156 12zM16.371094 8.644531L16.371094 4.972656C16.371094 4.453125 15.933594 4.011719 15.414062 4.011719L12.539062 4.011719C12.019531 4.011719 11.582031 4.453125 11.582031 4.972656L11.582031 8.644531C11.582031 9.164062 12.019531 9.605469 12.539062 9.605469L15.414062 9.605469C15.933594 9.605469 16.371094 9.164062 16.371094 8.644531zM12.378906 8.644531L12.378906 4.972656C12.378906 4.890625 12.460938 4.8125 12.539062 4.8125L15.414062 4.8125C15.496094 4.8125 15.574219 4.890625 15.574219 4.972656L15.574219 8.644531C15.574219 8.726562 15.492188 8.804688 15.414062 8.804688L12.539062 8.804688C12.460938 8.804688 12.378906 8.726562 12.378906 8.644531zM6.550781 4.011719C6.03125 4.011719 5.589844 4.453125 5.589844 4.972656L5.589844 8.644531C5.589844 9.164062 6.03125 9.605469 6.550781 9.605469L9.425781 9.605469C9.945312 9.605469 10.382812 9.164062 10.382812 8.644531L10.382812 4.972656C10.382812 4.453125 9.945312 4.011719 9.425781 4.011719zM9.585938 4.972656L9.585938 8.644531C9.585938 8.726562 9.503906 8.804688 9.425781 8.804688L6.550781 8.804688C6.46875 8.804688 6.390625 8.726562 6.390625 8.644531L6.390625 4.972656C6.390625 4.890625 6.46875 4.8125 6.550781 4.8125L9.425781 4.8125C9.503906 4.8125 9.585938 4.890625 9.585938 4.972656zM4.792969 15.59375C4.351562 15.59375 3.992188 15.953125 3.992188 16.394531 3.992188 16.832031 4.351562 17.191406 4.792969 17.191406 5.230469 17.191406 5.589844 16.832031 5.589844 16.394531 5.589844 15.953125 5.230469 15.59375 4.792969 15.59375zM4.792969 15.59375"/>
    <path d="M 23.640625 6.6875 L 20.167969 2.855469 C 19.886719 2.574219 19.527344 2.414062 19.167969 2.414062 L 1.199219 2.414062 C 0.558594 2.414062 0 2.933594 0 3.613281 L 0 15.59375 C 0 16.234375 0.519531 16.792969 1.199219 16.792969 L 2.023438 16.792969 C 2.214844 18.15625 3.371094 19.1875 4.792969 19.1875 C 6.214844 19.1875 7.367188 18.15625 7.558594 16.792969 L 11.980469 16.792969 L 11.980469 15.992188 L 7.558594 15.992188 C 7.367188 14.628906 6.214844 13.597656 4.792969 13.597656 C 4.785156 13.597656 4.777344 13.597656 4.773438 13.597656 C 4.765625 13.597656 4.757812 13.597656 4.753906 13.597656 C 3.355469 13.597656 2.195312 14.636719 1.996094 15.992188 L 1.199219 15.992188 C 1 15.992188 0.796875 15.832031 0.796875 15.59375 L 0.796875 12.796875 L 12.378906 12.796875 C 12.617188 12.796875 12.777344 12.640625 12.777344 12.398438 C 12.777344 12.160156 12.617188 12 12.378906 12 L 0.796875 12 L 0.796875 11.203125 L 10.78125 11.203125 C 11.023438 11.203125 11.179688 11.042969 11.179688 10.800781 C 11.179688 10.5625 11.023438 10.402344 10.78125 10.402344 L 0.796875 10.402344 L 0.796875 9.605469 L 3.515625 9.605469 C 3.992188 9.605469 4.394531 9.203125 4.394531 8.726562 L 4.394531 4.890625 C 4.394531 4.414062 3.992188 4.011719 3.515625 4.011719 L 0.796875 4.011719 L 0.796875 3.613281 C 0.796875 3.414062 1 3.214844 1.199219 3.214844 L 19.167969 3.214844 C 19.289062 3.214844 19.449219 3.292969 19.566406 3.375 L 20.144531 4.011719 L 18.25 4.011719 C 17.890625 4.011719 17.570312 4.332031 17.570312 4.691406 L 17.570312 8.925781 C 17.570312 9.285156 17.890625 9.605469 18.25 9.605469 L 23.203125 9.605469 L 23.203125 11.203125 L 24 11.203125 L 24 7.605469 C 24 7.246094 23.878906 6.929688 23.640625 6.6875 Z M 4.792969 18.390625 C 3.675781 18.390625 2.796875 17.511719 2.796875 16.394531 C 2.796875 15.273438 3.675781 14.394531 4.792969 14.394531 C 5.910156 14.394531 6.789062 15.273438 6.789062 16.394531 C 6.789062 17.511719 5.910156 18.390625 4.792969 18.390625 Z M 3.515625 4.8125 C 3.554688 4.8125 3.59375 4.851562 3.59375 4.890625 L 3.59375 8.726562 C 3.59375 8.765625 3.554688 8.804688 3.515625 8.804688 L 0.796875 8.804688 L 0.796875 4.8125 Z M 23.160156 8.804688 L 18.371094 8.804688 L 18.371094 4.8125 L 20.804688 4.8125 L 23 7.207031 C 23.121094 7.289062 23.160156 7.449219 23.160156 7.566406 Z M 23.160156 8.804688"/>
</svg>

<svg xmlns="http://www.w3.org/2000/svg" width="32" height="32" viewBox="0 0 24 24">
    <path d="M23.281 16.793a.416.416 0 0 0-.48.32c-.438 2.196-2.196 3.672-4.313 3.672a4.615 4.615 0 0 1-4.383-3.195h1.868v-.797h-2.32a.352.352 0 0 0-.157 0h-.719v3.195h.801v-1.484a5.378 5.378 0 0 0 4.871 3.082c2.555 0 4.594-1.719 5.153-4.316a.413.413 0 0 0-.32-.477zm0 0M23.16 13.758c-.89-1.801-2.683-2.957-4.71-2.957-2.438 0-4.595 1.597-5.27 3.914-.043.2.078.398.277.48.2.04.398-.082.48-.28.56-1.915 2.477-3.313 4.512-3.313a4.456 4.456 0 0 1 4.133 2.793h-1.816v.8h3.195V12h-.8zm0 0M16.371 8.645V4.973c0-.52-.437-.961-.957-.961H12.54a.972.972 0 0 0-.957.96v3.673c0 .52.438.96.957.96h2.875c.52 0 .957-.44.957-.96zm-3.992 0V4.973c0-.082.082-.16.16-.16h2.875a.17.17 0 0 1 .16.16v3.672c0 .082-.082.16-.16.16H12.54c-.078 0-.16-.078-.16-.16zm0 0M6.55 4.012c-.519 0-.96.441-.96.96v3.673c0 .52.441.96.96.96h2.876c.52 0 .957-.44.957-.96V4.973c0-.52-.438-.961-.957-.961zm3.036.96v3.673c0 .082-.082.16-.16.16H6.55a.17.17 0 0 1-.16-.16V4.973a.17.17 0 0 1 .16-.16h2.875c.078 0 .16.078.16.16zm0 0M4.793 15.594c-.441 0-.8.36-.8.8 0 .438.359.797.8.797a.8.8 0 0 0 .797-.796c0-.442-.36-.801-.797-.801zm0 0"/>
    <path d="M23.64 6.688l-3.472-3.833a1.432 1.432 0 0 0-1-.44H1.199C.56 2.414 0 2.933 0 3.612v11.98c0 .641.52 1.2 1.2 1.2h.823a2.778 2.778 0 0 0 2.77 2.395 2.774 2.774 0 0 0 2.766-2.395h4.421v-.8H7.56a2.774 2.774 0 0 0-2.766-2.395h-.04a2.796 2.796 0 0 0-2.757 2.394H1.2c-.199 0-.402-.16-.402-.398v-2.797h11.582c.238 0 .398-.156.398-.399 0-.238-.16-.398-.398-.398H.797v-.797h9.984c.242 0 .399-.16.399-.402 0-.239-.157-.399-.399-.399H.797v-.797h2.719a.89.89 0 0 0 .879-.878V4.89a.89.89 0 0 0-.88-.88H.798v-.398c0-.199.203-.398.402-.398h17.969c.121 0 .281.078.398.16l.579.637H18.25c-.36 0-.68.32-.68.68v4.234c0 .36.32.68.68.68h4.953v1.597H24V7.605c0-.359-.121-.675-.36-.918zM4.794 18.39a1.977 1.977 0 0 1-1.996-1.996c0-1.122.879-2 1.996-2s1.996.878 1.996 2a1.977 1.977 0 0 1-1.996 1.996zM3.516 4.813c.039 0 .078.039.078.078v3.836c0 .039-.04.078-.078.078H.796V4.813zM23.16 8.805h-4.789V4.813h2.434L23 7.207c.121.082.16.242.16.36zm0 0"/>
</svg>
